icon/fa/house-medical-circle-check.svg

<svg xmlns="http://www.w3.org/2000/svg" viewBox="0 0 640 512"><!--! Font Awesome Free 6.1.2 by @fontawesome - https://fontawesome.com License - https://fontawesome.com/license/free (Icons: CC BY 4.0, Fonts: SIL OFL 1.1, Code: MIT License) Copyright 2022 Fonticons, Inc.--><path d="M320.5 381.5c4.1 54 32.5 101.1 74.3 130.5H128.1c-35.35 0-64.01-28.7-64.01-64V287.6H32.05C14.02 287.6 0 273.5 0 255.5c0-9 3.004-17 10.01-24L266.4 8.016c7-7.014 15-8.016 22-8.016s15 2.004 21.1 7.014L522.1 193.9c-8.5-1.2-17.2-1.9-26.1-1.9-42.4 0-81.3 15-111.7 40H328v-56c0-8.8-7.2-16-16.9-16h-48c-7.9 0-16 7.2-16 16v56h-56c-7.9 0-16 7.2-16 16v48c0 8.8 8.1 16 16 16h56v56c0 8.8 8.1 16 16 16h48c4 0 6.9-.9 9.4-2.5zM328 312h1.1c-.4 1.1-.7 2.3-1.1 3.4V312zm312 56c0 79.5-64.5 144-144 144s-144-64.5-144-144 64.5-144 144-144 144 64.5 144 144zm-99.3-43.3L480 385.4l-28.7-28.7c-6.2-6.3-16.4-6.3-22.6 0-6.3 6.2-6.3 16.4 0 22.6l40 40c6.2 6.3 16.4 6.3 22.6 0l72-72c6.3-6.2 6.3-16.4 0-22.6-6.2-6.3-16.4-6.3-22.6 0z"/></svg>

<svg xmlns="http://www.w3.org/2000/svg" viewBox="0 0 640 512" height="1em" width="1em">
<!--! Font Awesome Free 6.1.2 by @fontawesome - https://fontawesome.com License - https://fontawesome.com/license/free (Icons: CC BY 4.0, Fonts: SIL OFL 1.1, Code: MIT License) Copyright 2022 Fonticons, Inc.-->
  <path d="M320.5 381.5C324.6 435.5 353 482.6 394.8 512H128.1C92.75 512 64.09 483.3 64.09 448V287.6H32.05C14.02 287.6 0 273.5 0 255.5C0 246.5 3.004 238.5 10.01 231.5L266.4 8.016C273.4 1.002 281.4 0 288.4 0C295.4 0 303.4 2.004 309.5 7.014L522.1 193.9C513.6 192.7 504.9 192 496 192C453.6 192 414.7 207 384.3 232L384 232H328V176C328 167.2 320.8 160 311.1 160H263.1C255.2 160 247.1 167.2 247.1 176V232H191.1C183.2 232 175.1 239.2 175.1 248V296C175.1 304.8 183.2 312 191.1 312H247.1V368C247.1 376.8 255.2 384 263.1 384H311.1C315.1 384 318 383.1 320.5 381.5H320.5zM328 312H329.1C328.7 313.1 328.4 314.3 328 315.4V312zM640 368C640 447.5 575.5 512 496 512C416.5 512 352 447.5 352 368C352 288.5 416.5 224 496 224C575.5 224 640 288.5 640 368zM540.7 324.7L480 385.4L451.3 356.7C445.1 350.4 434.9 350.4 428.7 356.7C422.4 362.9 422.4 373.1 428.7 379.3L468.7 419.3C474.9 425.6 485.1 425.6 491.3 419.3L563.3 347.3C569.6 341.1 569.6 330.9 563.3 324.7C557.1 318.4 546.9 318.4 540.7 324.7H540.7z"/>
</svg>
